icons/badge/check/octagon.svg

<svg width="32" height="32" viewBox="0 0 32 32" xmlns="http://www.w3.org/2000/svg"><path fill-rule="evenodd" clip-rule="evenodd" d="M10.6668 2H10.2526L9.95968 2.29289L2.29302 9.95956L2.00012 10.2525V10.6667V21.3333V21.7475L2.29302 22.0404L9.95968 29.7071L10.2526 30H10.6668H21.3335H21.7477L22.0406 29.7071L29.7072 22.0404L30.0001 21.7475V21.3333V10.6667V10.2525L29.7072 9.95956L22.0406 2.29289L21.7477 2H21.3335H10.6668ZM4.00012 11.0809L11.081 4H20.9192L28.0001 11.0809V20.9191L20.9192 28H11.081L4.00012 20.9191V11.0809ZM14.7071 20.7071L22.7071 12.7071L21.2929 11.2929L14 18.5858L10.2071 14.7929L8.79289 16.2071L13.2929 20.7071L14 21.4142L14.7071 20.7071Z"/></svg>

<svg viewBox="0 0 32 32" xmlns="http://www.w3.org/2000/svg"><path fill-rule="evenodd" d="M10.667 2h-.414l-.293.293L2.293 9.96 2 10.252V21.748l.293.292 7.667 7.667.293.293h11.495l.293-.293 7.666-7.667.293-.293V10.252l-.293-.292-7.666-7.667L21.748 2H10.667zM4 11.08L11.081 4h9.838L28 11.08v9.84L20.92 28H11.08l-7.08-7.08v-9.84zm10.707 9.627l8-8-1.414-1.414L14 18.586l-3.793-3.793-1.414 1.414 4.5 4.5.707.707.707-.707z"/></svg>
